;FLAVOR:Marlin
;TIME:1818
;Filament used: 4.22088m
;Layer height: 0.4
;MINX:37.96
;MINY:31.661
;MINZ:0.45
;MAXX:197.04
;MAXY:203.339
;MAXZ:9.65
;Generated with Cura_SteamEngine 4.5.0
M140 S60
M105
M190 S60
M104 S200
M105
M109 S200
M82 ;absolute extrusion mode
; Ender 3 Custom Start G-code
G92 E0 ; Reset Extruder
G28 ; Home all axes
G1 Z2.0 F3000 ; Move Z Axis up little to prevent scratching of Heat Bed
G1 X0.1 Y20 Z0.3 F5000.0 ; Move to start position
G1 X0.1 Y200.0 Z0.3 F1500.0 E15 ; Draw the first line
G1 X0.4 Y200.0 Z0.3 F5000.0 ; Move to side a little
G1 X0.4 Y20 Z0.3 F1500.0 E30 ; Draw the second line
G92 E0 ; Reset Extruder
G1 Z2.0 F3000 ; Move Z Axis up little to prevent scratching of Heat Bed
G1 X5 Y20 Z0.3 F5000.0 ; Move over to prevent blob squish
G92 E0
G92 E0
G1 F2700 E-5
;LAYER_COUNT:24
;LAYER:0
M107
;MESH:Mask Oficio2.stl
G0 F7500 X88.697 Y56.816 Z0.45
;TYPE:WALL-INNER
G1 F2700 E0
G1 F1500 X89.471 Y56.61 E0.08991
G1 X90.202 Y56.27 E0.18041
G1 X90.858 Y55.808 E0.27047
G1 X91.425 Y55.242 E0.36041
G1 X91.886 Y54.585 E0.4505
G1 X92.225 Y53.856 E0.54075
G1 X92.433 Y53.079 E0.63104
G1 X92.502 Y52.282 E0.72084
G1 X92.433 Y51.482 E0.81098
G1 X92.225 Y50.706 E0.90116
G1 X91.886 Y49.979 E0.9912
G1 X91.426 Y49.321 E1.08132
G1 X90.858 Y48.752 E1.17157
G1 X90.199 Y48.291 E1.26185
G1 X89.472 Y47.953 E1.35185
G1 X88.696 Y47.744 E1.44206
G1 X88.316 Y47.712 E1.48487
G1 X87.897 Y47.677 E1.53207
G1 X87.098 Y47.744 E1.62207
G1 X86.322 Y47.953 E1.71228
G1 X86.116 Y48.049 E1.7378
G1 X85.595 Y48.291 E1.80228
G1 X85.503 Y48.355 E1.81486
G1 X84.936 Y48.751 E1.89249
G1 X84.365 Y49.324 E1.9833
G1 X83.908 Y49.98 E2.07304
G1 X83.569 Y50.704 E2.16278
G1 X83.36 Y51.482 E2.25321
G1 X83.292 Y52.282 E2.34334
G1 X83.36 Y53.079 E2.43313
G1 X83.569 Y53.856 E2.52345
G1 X83.908 Y54.585 E2.6137
G1 X84.367 Y55.241 E2.70357
G1 X84.935 Y55.809 E2.79374
G1 X85.594 Y56.271 E2.88408
G1 X86.323 Y56.61 E2.97433
G1 X87.097 Y56.816 E3.06424
G1 X87.897 Y56.888 E3.15441
G1 X88.697 Y56.816 E3.24457
G0 F7500 X88.592 Y56.223
G1 F1500 X89.266 Y56.044 E3.32285
G1 X89.9 Y55.749 E3.40135
G1 X90.471 Y55.347 E3.47974
G1 X90.964 Y54.855 E3.55792
G1 X91.364 Y54.284 E3.63618
G1 X91.659 Y53.65 E3.71467
G1 X91.84 Y52.975 E3.79312
G1 X91.9 Y52.282 E3.8712
G1 X91.84 Y51.586 E3.94962
G1 X91.659 Y50.912 E4.02796
G1 X91.364 Y50.28 E4.10625
G1 X90.964 Y49.708 E4.1846
G1 X90.471 Y49.213 E4.26303
G1 X89.898 Y48.813 E4.34147
G1 X89.266 Y48.519 E4.41971
G1 X88.592 Y48.337 E4.49808
G1 X87.897 Y48.279 E4.57637
G1 X87.202 Y48.337 E4.65466
G1 X86.528 Y48.519 E4.73302
G1 X85.896 Y48.813 E4.81127
G1 X85.323 Y49.213 E4.88971
G1 X84.827 Y49.71 E4.96853
G1 X84.43 Y50.281 E5.0466
G1 X84.135 Y50.911 E5.12469
G1 X83.953 Y51.586 E5.20316
G1 X83.894 Y52.282 E5.28157
G1 X83.953 Y52.975 E5.35964
G1 X84.135 Y53.65 E5.43812
G1 X84.43 Y54.284 E5.51661
G1 X84.829 Y54.854 E5.59472
G1 X85.322 Y55.348 E5.67306
G1 X85.895 Y55.749 E5.75157
G1 X86.528 Y56.044 E5.82996
G1 X87.202 Y56.223 E5.90824
G1 X87.897 Y56.286 E5.98658
G1 X88.592 Y56.223 E6.06491
G0 F7500 X88.479 Y55.581
;TYPE:WALL-OUTER
G1 F1500 X89.043 Y55.431 E6.14134
G1 X89.573 Y55.184 E6.21792
G1 X90.051 Y54.848 E6.29444
G1 X90.464 Y54.435 E6.37093
G1 X90.799 Y53.958 E6.44727
G1 X91.046 Y53.427 E6.52396
G1 X91.197 Y52.862 E6.60055
G1 X91.248 Y52.282 E6.6768
G1 X91.197 Y51.699 E6.75345
G1 X91.046 Y51.135 E6.82991
G1 X90.799 Y50.606 E6.90637
G1 X90.464 Y50.127 E6.98292
G1 X90.051 Y49.713 E7.0595
G1 X89.572 Y49.378 E7.13605
G1 X89.043 Y49.132 E7.21245
G1 X88.479 Y48.98 E7.28895
G1 X87.897 Y48.931 E7.36544
G1 X87.315 Y48.98 E7.44193
G1 X86.751 Y49.132 E7.51843
G1 X86.222 Y49.378 E7.59483
G1 X85.742 Y49.713 E7.67149
G1 X85.328 Y50.128 E7.74826
G1 X84.995 Y50.607 E7.82466
G1 X84.748 Y51.135 E7.901
G1 X84.596 Y51.699 E7.9775
G1 X84.546 Y52.282 E8.05413
G1 X84.596 Y52.862 E8.13037
G1 X84.748 Y53.427 E8.20699
G1 X84.995 Y53.958 E8.28369
G1 X85.329 Y54.435 E8.35995
G1 X85.742 Y54.848 E8.43644
G1 X86.221 Y55.184 E8.51306
G1 X86.751 Y55.431 E8.58964
G1 X87.315 Y55.581 E8.66607
G1 X87.897 Y55.633 E8.74259
G1 X88.479 Y55.581 E8.81912
G0 F7500 X88.612 Y56.339
G1 F2700 E3.81912
G0 F7500 X92.7 Y53.127
G0 X89.565 Y47.698
G0 X88.338 Y47.408
G0 X88.999 Y47.236
G0 X92.027 Y46.661
G0 X95.054 Y46.137
G0 X99.639 Y45.466
G0 X105.275 Y44.772
G0 X114.666 Y43.814
G0 X91.092 Y57.27
G0 X82.917 Y67.666
G0 X80.744 Y70.681
G0 X79.197 Y73.131
G0 X77.366 Y76.37
G0 X76.435 Y78.233
G0 X74.606 Y82.471
G0 X73.66 Y85.071
G0 X72.862 Y87.51
G0 X72.586 Y88.616
G0 X69.789 Y94.25
G0 X68.415 Y94.681
G0 X65.166 Y99.859
;TYPE:WALL-INNER
G1 F2700 E8.81912
G1 F1500 X65.894 Y99.52 E8.90926
G1 X66.552 Y99.06 E8.99939
G1 X67.12 Y98.492 E9.08956
G1 X67.58 Y97.834 E9.17968
G1 X67.919 Y97.106 E9.26982
G1 X68.127 Y96.33 E9.36001
G1 X68.196 Y95.531 E9.45003
G1 X68.127 Y94.732 E9.54005
G1 X67.919 Y93.956 E9.63024
G1 X67.58 Y93.228 E9.72038
G1 X67.12 Y92.57 E9.81051
G1 X66.551 Y92.001 E9.90083
G1 X65.893 Y91.542 E9.99089
G1 X65.168 Y91.203 E10.08073
G1 X64.39 Y90.994 E10.17116
G1 X63.591 Y90.926 E10.26118
G1 X62.792 Y90.994 E10.35119
G1 X62.014 Y91.203 E10.44162
G1 X61.29 Y91.542 E10.53136
G1 X60.63 Y92 E10.62154
G1 X60.061 Y92.57 E10.71194
G1 X59.601 Y93.228 E10.80207
G1 X59.262 Y93.956 E10.89221
G1 X59.054 Y94.732 E10.9824
G1 X58.986 Y95.531 E11.07241
G1 X59.054 Y96.33 E11.16242
G1 X59.262 Y97.106 E11.25261
G1 X59.601 Y97.834 E11.34275
G1 X60.062 Y98.492 E11.43294
G1 X60.63 Y99.06 E11.52311
G1 X61.288 Y99.52 E11.61323
G1 X62.016 Y99.859 E11.70338
G1 X62.792 Y100.067 E11.79356
G1 X63.591 Y100.136 E11.88358
G1 X64.39 Y100.067 E11.97361
G1 X65.166 Y99.859 E12.06379
G0 F7500 X64.96 Y99.293
G1 F1500 X65.593 Y98.998 E12.14218
G1 X66.165 Y98.598 E12.22054
G1 X66.658 Y98.105 E12.2988
G1 X67.058 Y97.533 E12.37715
G1 X67.353 Y96.9 E12.45554
G1 X67.534 Y96.226 E12.53388
G1 X67.594 Y95.531 E12.61219
G1 X67.534 Y94.836 E12.69049
G1 X67.353 Y94.162 E12.76883
G1 X67.058 Y93.529 E12.84723
G1 X66.658 Y92.957 E12.92558
G1 X66.164 Y92.463 E13.004
G1 X65.592 Y92.064 E13.08229
G1 X64.961 Y91.769 E13.16048
G1 X64.286 Y91.587 E13.23895
G1 X63.591 Y91.528 E13.31725
G1 X62.896 Y91.587 E13.39555
G1 X62.221 Y91.769 E13.47402
G1 X61.59 Y92.064 E13.55221
G1 X61.017 Y92.462 E13.63053
G1 X60.523 Y92.957 E13.70903
G1 X60.123 Y93.529 E13.78738
G1 X59.828 Y94.162 E13.86578
G1 X59.647 Y94.836 E13.94411
G1 X59.588 Y95.531 E14.02241
G1 X59.647 Y96.226 E14.10071
G1 X59.828 Y96.9 E14.17905
G1 X60.123 Y97.533 E14.25744
G1 X60.523 Y98.105 E14.33579
G1 X61.017 Y98.598 E14.41413
G1 X61.589 Y98.998 E14.49248
G1 X62.222 Y99.293 E14.57088
G1 X62.896 Y99.474 E14.64922
G1 X63.591 Y99.534 E14.72752
G1 X64.286 Y99.474 E14.80583
G1 X64.96 Y99.293 E14.88417
G0 F7500 X64.737 Y98.68
;TYPE:WALL-OUTER
G1 F1500 X65.267 Y98.433 E14.96075
G1 X65.745 Y98.098 E15.03719
G1 X66.158 Y97.685 E15.11368
G1 X66.493 Y97.207 E15.19012
G1 X66.74 Y96.677 E15.2667
G1 X66.891 Y96.113 E15.34316
G1 X66.942 Y95.531 E15.41968
G1 X66.891 Y94.949 E15.49619
G1 X66.74 Y94.385 E15.57265
G1 X66.493 Y93.855 E15.64923
G1 X66.158 Y93.376 E15.72578
G1 X65.745 Y92.963 E15.80227
G1 X65.266 Y92.629 E15.87874
G1 X64.737 Y92.382 E15.9552
G1 X64.173 Y92.23 E16.0317
G1 X63.591 Y92.18 E16.1082
G1 X63.009 Y92.23 E16.1847
G1 X62.445 Y92.382 E16.2612
G1 X61.916 Y92.629 E16.33766
G1 X61.436 Y92.963 E16.41424
G1 X61.023 Y93.376 E16.49073
G1 X60.688 Y93.855 E16.56728
G1 X60.441 Y94.385 E16.64386
G1 X60.29 Y94.949 E16.72032
G1 X60.24 Y95.531 E16.79682
G1 X60.29 Y96.113 E16.87332
G1 X60.441 Y96.677 E16.94979
G1 X60.688 Y97.207 E17.02636
G1 X61.023 Y97.685 E17.10281
G1 X61.436 Y98.098 E17.1793
G1 X61.915 Y98.433 E17.25585
G1 X62.445 Y98.68 E17.33243
G1 X63.009 Y98.831 E17.40889
G1 X63.591 Y98.882 E17.4854
G1 X64.173 Y98.831 E17.56191
G1 X64.737 Y98.68 E17.63838
G0 F7500 X65 Y99.403
G1 F2700 E12.63838
G0 F7500 X64.441 Y100.355
G0 X63.999 Y97.828
G0 X63.999 Y137.171
G0 X64.441 Y134.644
G0 X66.679 Y137.685
G0 X66.942 Y138.249
G0 X67.103 Y138.85
G0 X67.158 Y139.468
G0 X67.103 Y140.086
G0 X67.058 Y140.256
G0 X65.894 Y143.457
;TYPE:WALL-INNER
G1 F2700 E17.63838
G1 F1500 X66.552 Y142.997 E17.7285
G1 X67.12 Y142.429 E17.81867
G1 X67.58 Y141.771 E17.90879
G1 X67.919 Y141.043 E17.99894
G1 X68.127 Y140.267 E18.08912
G1 X68.196 Y139.468 E18.17914
G1 X68.127 Y138.669 E18.26917
G1 X67.919 Y137.893 E18.35935
G1 X67.58 Y137.165 E18.4495
G1 X67.12 Y136.507 E18.53962
G1 X66.552 Y135.939 E18.62979
G1 X65.894 Y135.479 E18.71991
G1 X65.166 Y135.14 E18.81006
G1 X64.39 Y134.932 E18.90024
G1 X63.591 Y134.863 E18.99026
G1 X62.792 Y134.932 E19.08029
G1 X62.016 Y135.14 E19.17047
G1 X61.288 Y135.479 E19.26062
G1 X60.63 Y135.939 E19.35074
G1 X60.062 Y136.507 E19.44091
G1 X59.601 Y137.165 E19.53109
G1 X59.262 Y137.893 E19.62124
G1 X59.054 Y138.669 E19.71142
G1 X58.986 Y139.468 E19.80144
G1 X59.054 Y140.267 E19.89145
G1 X59.262 Y141.043 E19.98164
G1 X59.601 Y141.771 E20.07178
G1 X60.062 Y142.429 E20.16197
G1 X60.63 Y142.997 E20.25214
G1 X61.288 Y143.457 E20.34226
G1 X62.016 Y143.796 E20.43241
G1 X62.792 Y144.004 E20.52259
G1 X63.591 Y144.073 E20.61261
G1 X64.39 Y144.004 E20.70264
G1 X65.166 Y143.796 E20.79282
G1 X65.894 Y143.457 E20.88297
G0 F7500 X65.593 Y142.935
G1 F1500 X66.165 Y142.535 E20.96132
G1 X66.658 Y142.042 E21.03958
G1 X67.058 Y141.47 E21.11793
G1 X67.353 Y140.837 E21.19632
G1 X67.534 Y140.163 E21.27466
G1 X67.594 Y139.468 E21.35297
G1 X67.534 Y138.773 E21.43128
G1 X67.353 Y138.099 E21.50961
G1 X67.058 Y137.466 E21.58801
G1 X66.658 Y136.894 E21.66636
G1 X66.165 Y136.401 E21.74462
G1 X65.593 Y136.001 E21.82297
G1 X64.96 Y135.706 E21.90137
G1 X64.286 Y135.525 E21.97971
G1 X63.591 Y135.465 E22.05801
G1 X62.896 Y135.525 E22.13632
G1 X62.222 Y135.706 E22.21466
G1 X61.589 Y136.001 E22.29305
G1 X61.017 Y136.401 E22.3714
G1 X60.523 Y136.894 E22.44975
G1 X60.123 Y137.466 E22.5281
G1 X59.828 Y138.099 E22.60649
G1 X59.647 Y138.773 E22.68483
G1 X59.588 Y139.468 E22.76313
G1 X59.647 Y140.163 E22.84142
G1 X59.828 Y140.837 E22.91976
G1 X60.123 Y141.47 E22.99815
G1 X60.523 Y142.042 E23.07651
G1 X61.017 Y142.535 E23.15485
G1 X61.589 Y142.935 E23.2332
G1 X62.222 Y143.23 E23.31159
G1 X62.896 Y143.411 E23.38993
G1 X63.591 Y143.471 E23.46824
G1 X64.286 Y143.411 E23.54654
G1 X64.96 Y143.23 E23.62488
G1 X65.593 Y142.935 E23.70328
G0 F7500 X65.267 Y142.37
;TYPE:WALL-OUTER
G1 F1500 X65.745 Y142.035 E23.77972
G1 X66.158 Y141.622 E23.85621
G1 X66.493 Y141.144 E23.93265
G1 X66.74 Y140.614 E24.00923
G1 X66.891 Y140.05 E24.08569
G1 X66.942 Y139.468 E24.16221
G1 X66.891 Y138.886 E24.23872
G1 X66.74 Y138.322 E24.31518
G1 X66.493 Y137.792 E24.39176
G1 X66.158 Y137.314 E24.4682
G1 X65.745 Y136.901 E24.54469
G1 X65.267 Y136.566 E24.62114
G1 X64.737 Y136.319 E24.69771
G1 X64.173 Y136.168 E24.77418
G1 X63.591 Y136.117 E24.85069
G1 X63.009 Y136.168 E24.9272
G1 X62.445 Y136.319 E25.00366
G1 X61.915 Y136.566 E25.08024
G1 X61.436 Y136.901 E25.15679
G1 X61.023 Y137.314 E25.23328
G1 X60.688 Y137.792 E25.30972
G1 X60.441 Y138.322 E25.3863
G1 X60.29 Y138.886 E25.46277
G1 X60.24 Y139.468 E25.53927
G1 X60.29 Y140.05 E25.61577
G1 X60.441 Y140.614 E25.69223
G1 X60.688 Y141.144 E25.76881
G1 X61.023 Y141.622 E25.84525
G1 X61.436 Y142.035 E25.92174
G1 X61.915 Y142.37 E25.99829
G1 X62.445 Y142.617 E26.07487
G1 X63.009 Y142.768 E26.15133
G1 X63.591 Y142.819 E26.22784
G1 X64.173 Y142.768 E26.30436
G1 X64.737 Y142.617 E26.38082
G1 X65.267 Y142.37 E26.4574
G0 F7500 X65.652 Y143.036
G1 F2700 E21.4574
G0 F7500 X66.04 Y143.71
G0 X64.754 Y141.491
G0 X78.452 Y158.052
G0 X76.171 Y159.244
G0 X86.493 Y179.451
G0 X87.279 Y179.206
G0 X87.897 Y179.151
G0 X88.515 Y179.206
G0 X89.116 Y179.367
G0 X89.681 Y179.63
G0 X90.189 Y179.987
G0 X90.629 Y180.427
G0 X90.985 Y180.934
G0 X91.248 Y181.498
G0 X91.409 Y182.101
G0 X91.464 Y182.718
G0 X91.409 Y183.338
G0 X91.364 Y183.507
G0 X90.199 Y186.707
;TYPE:WALL-INNER
G1 F2700 E26.4574
G1 F1500 X90.857 Y186.248 E26.54746
G1 X91.426 Y185.678 E26.63786
G1 X91.886 Y185.021 E26.72789
G1 X92.225 Y184.293 E26.81804
G1 X92.433 Y183.518 E26.90811
G1 X92.502 Y182.718 E26.99825
G1 X92.433 Y181.92 E27.08816
G1 X92.225 Y181.142 E27.17856
G1 X91.885 Y180.413 E27.26886
G1 X91.425 Y179.759 E27.35861
G1 X90.859 Y179.19 E27.4487
G1 X90.2 Y178.729 E27.53898
G1 X89.472 Y178.39 E27.62913
G1 X88.696 Y178.182 E27.71931
G1 X87.897 Y178.113 E27.80933
G1 X87.098 Y178.182 E27.89936
G1 X86.322 Y178.39 E27.98954
G1 X85.594 Y178.729 E28.07969
G1 X84.935 Y179.19 E28.16996
G1 X84.367 Y179.759 E28.26021
G1 X83.908 Y180.415 E28.35009
G1 X83.569 Y181.141 E28.44003
G1 X83.36 Y181.919 E28.53046
G1 X83.292 Y182.718 E28.62047
G1 X83.36 Y183.518 E28.7106
G1 X83.569 Y184.295 E28.80092
G1 X83.908 Y185.02 E28.89076
G1 X84.366 Y185.678 E28.98075
G1 X84.936 Y186.248 E29.07124
G1 X85.521 Y186.655 E29.15124
G1 X85.595 Y186.707 E29.16139
G1 X86.143 Y186.964 E29.22934
G1 X86.319 Y187.046 E29.25113
G1 X87.045 Y187.241 E29.33551
G1 X87.098 Y187.256 E29.3417
G1 X87.897 Y187.323 E29.4317
G1 X88.317 Y187.288 E29.47901
G1 X88.696 Y187.256 E29.52171
G1 X89.475 Y187.046 E29.61227
G1 X90.199 Y186.707 E29.70201
G0 F7500 X89.898 Y186.185
G1 F1500 X90.47 Y185.786 E29.7803
G1 X90.964 Y185.291 E29.8588
G1 X91.364 Y184.72 E29.93706
G1 X91.659 Y184.087 E30.01545
G1 X91.84 Y183.414 E30.09369
G1 X91.9 Y182.718 E30.1721
G1 X91.84 Y182.024 E30.2503
G1 X91.659 Y181.348 E30.32885
G1 X91.364 Y180.715 E30.40725
G1 X90.964 Y180.146 E30.48532
G1 X90.471 Y179.651 E30.56374
G1 X89.899 Y179.251 E30.6421
G1 X89.266 Y178.956 E30.72049
G1 X88.592 Y178.775 E30.79883
G1 X87.897 Y178.715 E30.87713
G1 X87.202 Y178.775 E30.95544
G1 X86.528 Y178.956 E31.03378
G1 X85.895 Y179.251 E31.11217
G1 X85.322 Y179.651 E31.19062
G1 X84.829 Y180.146 E31.26904
G1 X84.43 Y180.716 E31.34714
G1 X84.135 Y181.348 E31.42543
G1 X83.953 Y182.023 E31.50391
G1 X83.894 Y182.718 E31.58221
G1 X83.953 Y183.414 E31.66061
G1 X84.135 Y184.088 E31.73898
G1 X84.43 Y184.719 E31.81717
G1 X84.828 Y185.291 E31.8954
G1 X85.323 Y185.786 E31.97398
G1 X85.896 Y186.185 E32.05235
G1 X86.526 Y186.48 E32.13044
G1 X87.202 Y186.663 E32.20906
G1 X87.897 Y186.721 E32.28734
G1 X88.592 Y186.663 E32.36563
G1 X89.268 Y186.48 E32.44425
G1 X89.898 Y186.185 E32.52233
G0 F7500 X89.572 Y185.62
;TYPE:WALL-OUTER
G1 F1500 X90.051 Y185.286 E32.59881
G1 X90.464 Y184.872 E32.67539
G1 X90.799 Y184.394 E32.75184
G1 X91.046 Y183.864 E32.82841
G1 X91.197 Y183.301 E32.90475
G1 X91.248 Y182.718 E32.98139
G1 X91.197 Y182.137 E33.05777
G1 X91.046 Y181.571 E33.13449
G1 X90.799 Y181.042 E33.21095
G1 X90.464 Y180.565 E33.28729
G1 X90.051 Y180.151 E33.36387
G1 X89.573 Y179.816 E33.44031
G1 X89.043 Y179.569 E33.51689
G1 X88.479 Y179.418 E33.59335
G1 X87.897 Y179.367 E33.66986
G1 X87.315 Y179.418 E33.74638
G1 X86.751 Y179.569 E33.82284
G1 X86.221 Y179.816 E33.89942
G1 X85.742 Y180.151 E33.97597
G1 X85.329 Y180.565 E34.05255
G1 X84.995 Y181.042 E34.12881
G1 X84.748 Y181.572 E34.20539
G1 X84.596 Y182.136 E34.28189
G1 X84.546 Y182.718 E34.35839
G1 X84.596 Y183.301 E34.43502
G1 X84.748 Y183.864 E34.51139
G1 X84.995 Y184.393 E34.58785
G1 X85.329 Y184.872 E34.66432
G1 X85.742 Y185.286 E34.74091
G1 X86.222 Y185.62 E34.81749
G1 X86.75 Y185.867 E34.89383
G1 X87.315 Y186.02 E34.97049
G1 X87.897 Y186.069 E35.04698
G1 X88.479 Y186.02 E35.12347
G1 X89.044 Y185.867 E35.20012
G1 X89.572 Y185.62 E35.27646
G0 F7500 X89.956 Y186.287
G1 F2700 E30.27646
G0 F7500 X88.338 Y187.592
G0 X88.999 Y187.764
G0 X92.048 Y188.343
G0 X95.074 Y188.867
G0 X103.077 Y189.973
G0 X109.772 Y190.736
G0 X114.753 Y191.219
G0 X93.232 Y179.464
G0 X84.196 Y168.939
G0 X81.443 Y165.341
G0 X79.617 Y162.585
G0 X78.253 Y160.268
G0 X76.435 Y156.765
G0 X74.606 Y152.531
G0 X73.862 Y150.541
G0 X72.676 Y146.858
G0 X71.769 Y143.486
G0 X70.782 Y138.909
G0 X70.029 Y134.142
G0 X69.678 Y131.356
G0 X69.35 Y127.769
G0 X69.156 Y124.58
G0 X68.987 Y119.558
G0 X69.028 Y113.406
G0 X69.306 Y108.233
G0 X69.732 Y103.172
G0 X70.466 Y97.878
G0 X71.514 Y92.582
G0 X72.338 Y89.384
G0 X72.862 Y87.51
G0 X73.864 Y84.453
G0 X75.076 Y81.29
G0 X76.817 Y77.484
G0 X78.558 Y74.193
G0 X80.286 Y71.372
G0 X81.444 Y69.659
G0 X82.917 Y67.666
G0 X84.469 Y65.729
