;FLAVOR:Marlin
;TIME:1643
;Filament used: 5.03622m
;Layer height: 0.5
;MINX:38.01
;MINY:31.713
;MINZ:0.6
;MAXX:196.99
;MAXY:203.287
;MAXZ:9.6
;Generated with Cura_SteamEngine 4.5.0
M140 S50
M105
M190 S50
M104 S220
M105
M109 S220
M82 ;absolute extrusion mode
; Ender 3 Custom Start G-code
G92 E0 ; Reset Extruder
G28 ; Home all axes
G1 Z2.0 F3000 ; Move Z Axis up little to prevent scratching of Heat Bed
G1 X0.1 Y20 Z0.3 F5000.0 ; Move to start position
G1 X0.1 Y200.0 Z0.3 F1500.0 E15 ; Draw the first line
G1 X0.4 Y200.0 Z0.3 F5000.0 ; Move to side a little
G1 X0.4 Y20 Z0.3 F1500.0 E30 ; Draw the second line
G92 E0 ; Reset Extruder
G1 Z2.0 F3000 ; Move Z Axis up little to prevent scratching of Heat Bed
G1 X5 Y20 Z0.3 F5000.0 ; Move over to prevent blob squish
G92 E0
G92 E0
G1 F2700 E-5
;LAYER_COUNT:19
;LAYER:0
M107
;MESH:Mask_Oficio.stl
G0 F6000 X87.897 Y56.487 Z0.6
;TYPE:WALL-INNER
G1 F2700 E0
G1 F1200 X88.627 Y56.421 E0.14627
G1 X89.333 Y56.234 E0.29202
G1 X90.001 Y55.923 E0.43907
G1 X90.6 Y55.5 E0.58541
G1 X91.116 Y54.984 E0.73103
G1 X91.538 Y54.385 E0.87726
G1 X91.848 Y53.718 E1.02404
G1 X92.037 Y53.011 E1.17008
G1 X92.102 Y52.282 E1.31614
G1 X92.037 Y51.55 E1.46279
G1 X91.848 Y50.844 E1.60864
G1 X91.539 Y50.18 E1.7548
G1 X91.118 Y49.579 E1.90123
G1 X90.6 Y49.06 E2.04756
G1 X89.999 Y48.638 E2.19411
G1 X89.334 Y48.33 E2.34036
G1 X88.626 Y48.139 E2.4867
G1 X87.897 Y48.078 E2.63269
G1 X87.168 Y48.139 E2.77868
G1 X86.459 Y48.331 E2.92526
G1 X85.797 Y48.638 E3.07089
G1 X85.194 Y49.059 E3.21765
G1 X84.674 Y49.58 E3.36455
G1 X84.255 Y50.181 E3.51075
G1 X83.947 Y50.842 E3.65628
G1 X83.756 Y51.551 E3.80281
G1 X83.693 Y52.282 E3.94923
G1 X83.756 Y53.01 E4.09506
G1 X83.946 Y53.718 E4.24134
G1 X84.255 Y54.384 E4.38786
G1 X84.675 Y54.984 E4.53402
G1 X85.194 Y55.501 E4.68021
G1 X85.794 Y55.923 E4.82659
G1 X86.461 Y56.234 E4.97346
G1 X87.167 Y56.421 E5.11921
G1 X87.897 Y56.487 E5.26548
G0 F6000 X87.897 Y55.684
;TYPE:WALL-OUTER
G1 F1200 X88.488 Y55.63 E5.38391
G1 X89.06 Y55.479 E5.50197
G1 X89.598 Y55.228 E5.62045
G1 X90.083 Y54.886 E5.73888
G1 X90.502 Y54.467 E5.85713
G1 X90.843 Y53.983 E5.97528
G1 X91.093 Y53.444 E6.09385
G1 X91.246 Y52.871 E6.2122
G1 X91.299 Y52.282 E6.33022
G1 X91.246 Y51.69 E6.44883
G1 X91.093 Y51.118 E6.56699
G1 X90.843 Y50.581 E6.6852
G1 X90.503 Y50.095 E6.80357
G1 X90.083 Y49.675 E6.9221
G1 X89.598 Y49.334 E7.04042
G1 X89.06 Y49.085 E7.15872
G1 X88.487 Y48.93 E7.27718
G1 X87.897 Y48.881 E7.39532
G1 X87.307 Y48.93 E7.51347
G1 X86.734 Y49.085 E7.63193
G1 X86.197 Y49.334 E7.75005
G1 X85.71 Y49.674 E7.86858
G1 X85.29 Y50.095 E7.98726
G1 X84.951 Y50.582 E8.10567
G1 X84.701 Y51.117 E8.22352
G1 X84.547 Y51.69 E8.34192
G1 X84.496 Y52.282 E8.4605
G1 X84.547 Y52.871 E8.57848
G1 X84.701 Y53.444 E8.69689
G1 X84.951 Y53.983 E8.81546
G1 X85.29 Y54.467 E8.93338
G1 X85.71 Y54.886 E9.05177
G1 X86.196 Y55.228 E9.17037
G1 X86.734 Y55.479 E9.28884
G1 X87.306 Y55.63 E9.4069
G1 X87.897 Y55.684 E9.52533
G0 F6000 X87.897 Y56.564
G1 F2700 E4.52533
G0 F6000 X86.327 Y56.603
G0 X87.096 Y54.474
G0 X65.38 Y94.032
G0 X67.112 Y92.575
G0 X67.234 Y95.531
G0 X67.177 Y96.163
G0 X67.013 Y96.775
G0 X66.745 Y97.351
G0 X66.643 Y97.498
G0 X65.028 Y99.482
;TYPE:WALL-INNER
G1 F2700 E9.52533
G1 F1200 X65.693 Y99.173 E9.67166
G1 X66.293 Y98.752 E9.81794
G1 X66.812 Y98.233 E9.96441
G1 X67.233 Y97.633 E10.11068
G1 X67.542 Y96.968 E10.25702
G1 X67.731 Y96.262 E10.40287
G1 X67.796 Y95.531 E10.54932
G1 X67.731 Y94.8 E10.69578
G1 X67.542 Y94.094 E10.84163
G1 X67.233 Y93.429 E10.98796
G1 X66.812 Y92.828 E11.1344
G1 X66.293 Y92.309 E11.28087
G1 X65.693 Y91.889 E11.42703
G1 X65.03 Y91.58 E11.573
G1 X64.321 Y91.39 E11.71948
G1 X63.591 Y91.327 E11.8657
G1 X62.861 Y91.39 E12.01192
G1 X62.152 Y91.581 E12.15846
G1 X61.49 Y91.889 E12.30416
G1 X60.889 Y92.308 E12.45037
G1 X60.369 Y92.828 E12.59712
G1 X59.948 Y93.429 E12.74356
G1 X59.639 Y94.094 E12.88989
G1 X59.45 Y94.802 E13.03613
G1 X59.387 Y95.531 E13.18215
G1 X59.45 Y96.26 E13.32818
G1 X59.639 Y96.968 E13.47441
G1 X59.948 Y97.633 E13.62075
G1 X60.369 Y98.233 E13.76702
G1 X60.888 Y98.752 E13.91349
G1 X61.489 Y99.173 E14.05993
G1 X62.154 Y99.482 E14.20626
G1 X62.86 Y99.671 E14.35211
G1 X63.591 Y99.736 E14.49857
G1 X64.322 Y99.671 E14.64502
G1 X65.028 Y99.482 E14.79087
G0 F6000 X64.754 Y98.727
;TYPE:WALL-OUTER
G1 F1200 X65.292 Y98.477 E14.90926
G1 X65.777 Y98.137 E15.02746
G1 X66.197 Y97.717 E15.146
G1 X66.537 Y97.232 E15.2642
G1 X66.787 Y96.694 E15.38259
G1 X66.94 Y96.122 E15.50075
G1 X66.993 Y95.531 E15.61916
G1 X66.94 Y94.94 E15.73757
G1 X66.787 Y94.368 E15.85574
G1 X66.537 Y93.83 E15.97413
G1 X66.197 Y93.344 E16.09249
G1 X65.777 Y92.924 E16.21102
G1 X65.292 Y92.585 E16.32911
G1 X64.755 Y92.335 E16.44732
G1 X64.182 Y92.181 E16.56572
G1 X63.591 Y92.13 E16.6841
G1 X63 Y92.181 E16.80248
G1 X62.427 Y92.335 E16.92089
G1 X61.891 Y92.585 E17.03891
G1 X61.404 Y92.924 E17.15733
G1 X60.984 Y93.344 E17.27586
G1 X60.644 Y93.83 E17.39423
G1 X60.394 Y94.368 E17.51262
G1 X60.241 Y94.941 E17.63097
G1 X60.19 Y95.531 E17.74915
G1 X60.241 Y96.121 E17.86733
G1 X60.394 Y96.694 E17.98568
G1 X60.644 Y97.232 E18.10407
G1 X60.984 Y97.717 E18.22227
G1 X61.404 Y98.137 E18.34081
G1 X61.89 Y98.477 E18.45917
G1 X62.428 Y98.727 E18.57756
G1 X63 Y98.88 E18.69572
G1 X63.591 Y98.933 E18.81414
G1 X64.182 Y98.88 E18.93255
G1 X64.754 Y98.727 E19.05071
G0 F6000 X65.054 Y99.554
G1 F2700 E14.05071
G0 F6000 X63.591 Y100.128
G0 X63.591 Y97.863
G0 X63.591 Y137.136
G0 X63.591 Y134.871
G0 X65.931 Y136.678
G0 X66.381 Y137.128
G0 X66.745 Y137.648
G0 X67.013 Y138.224
G0 X67.177 Y138.836
G0 X67.234 Y139.468
G0 X67.177 Y140.1
G0 X67.013 Y140.712
G0 X66.938 Y140.875
G0 X65.693 Y143.11
;TYPE:WALL-INNER
G1 F2700 E19.05071
G1 F1200 X66.293 Y142.689 E19.19698
G1 X66.812 Y142.17 E19.34346
G1 X67.233 Y141.57 E19.48973
G1 X67.542 Y140.905 E19.63606
G1 X67.731 Y140.199 E19.78191
G1 X67.796 Y139.468 E19.92837
G1 X67.731 Y138.737 E20.07482
G1 X67.542 Y138.031 E20.22067
G1 X67.233 Y137.366 E20.36701
G1 X66.812 Y136.766 E20.51328
G1 X66.293 Y136.247 E20.65975
G1 X65.693 Y135.826 E20.80602
G1 X65.028 Y135.517 E20.95236
G1 X64.322 Y135.328 E21.09821
G1 X63.591 Y135.263 E21.24467
G1 X62.86 Y135.328 E21.39112
G1 X62.154 Y135.517 E21.53697
G1 X61.489 Y135.826 E21.68331
G1 X60.888 Y136.247 E21.82974
G1 X60.369 Y136.766 E21.97621
G1 X59.948 Y137.366 E22.12249
G1 X59.639 Y138.031 E22.26882
G1 X59.45 Y138.739 E22.41506
G1 X59.387 Y139.468 E22.56108
G1 X59.45 Y140.197 E22.7071
G1 X59.639 Y140.905 E22.85334
G1 X59.948 Y141.57 E22.99967
G1 X60.369 Y142.17 E23.14594
G1 X60.888 Y142.689 E23.29242
G1 X61.489 Y143.11 E23.43885
G1 X62.154 Y143.419 E23.58519
G1 X62.86 Y143.608 E23.73104
G1 X63.591 Y143.673 E23.87749
G1 X64.322 Y143.608 E24.02395
G1 X65.028 Y143.419 E24.1698
G1 X65.693 Y143.11 E24.31613
G0 F6000 X65.292 Y142.414
;TYPE:WALL-OUTER
G1 F1200 X65.777 Y142.074 E24.43433
G1 X66.197 Y141.654 E24.55287
G1 X66.537 Y141.169 E24.67107
G1 X66.787 Y140.631 E24.78946
G1 X66.94 Y140.059 E24.90762
G1 X66.993 Y139.468 E25.02603
G1 X66.94 Y138.877 E25.14445
G1 X66.787 Y138.305 E25.26261
G1 X66.537 Y137.767 E25.381
G1 X66.197 Y137.282 E25.4992
G1 X65.777 Y136.862 E25.61773
G1 X65.292 Y136.522 E25.73593
G1 X64.754 Y136.272 E25.85432
G1 X64.182 Y136.119 E25.97248
G1 X63.591 Y136.066 E26.0909
G1 X63 Y136.119 E26.20931
G1 X62.428 Y136.272 E26.32747
G1 X61.89 Y136.522 E26.44586
G1 X61.404 Y136.862 E26.56423
G1 X60.984 Y137.282 E26.68276
G1 X60.644 Y137.767 E26.80096
G1 X60.394 Y138.305 E26.91935
G1 X60.241 Y138.878 E27.0377
G1 X60.19 Y139.468 E27.15588
G1 X60.241 Y140.058 E27.27406
G1 X60.394 Y140.631 E27.39242
G1 X60.644 Y141.169 E27.51081
G1 X60.984 Y141.654 E27.62901
G1 X61.404 Y142.074 E27.74754
G1 X61.89 Y142.414 E27.8659
G1 X62.428 Y142.664 E27.98429
G1 X63 Y142.817 E28.10246
G1 X63.591 Y142.87 E28.22087
G1 X64.182 Y142.817 E28.33928
G1 X64.754 Y142.664 E28.45744
G1 X65.292 Y142.414 E28.57583
G0 F6000 X65.731 Y143.176
G1 F2700 E23.57583
G0 F6000 X65.89 Y143.45
G0 X64.754 Y141.491
G0 X86.73 Y180.697
G0 X85.598 Y178.736
G0 X88.529 Y179.132
G0 X89.141 Y179.296
G0 X89.718 Y179.564
G0 X90.237 Y179.929
G0 X90.687 Y180.379
G0 X91.051 Y180.898
G0 X91.319 Y181.474
G0 X91.483 Y182.087
G0 X91.54 Y182.718
G0 X91.483 Y183.351
G0 X91.319 Y183.963
G0 X91.244 Y184.125
G0 X89.999 Y186.36
;TYPE:WALL-INNER
G1 F2700 E28.57583
G1 F1200 X90.599 Y185.94 E28.72199
G1 X91.118 Y185.42 E28.8686
G1 X91.539 Y184.82 E29.01488
G1 X91.848 Y184.155 E29.16121
G1 X92.037 Y183.45 E29.30687
G1 X92.102 Y182.718 E29.45352
G1 X92.037 Y181.988 E29.59978
G1 X91.848 Y181.281 E29.74582
G1 X91.539 Y180.615 E29.89234
G1 X91.118 Y180.016 E30.03845
G1 X90.6 Y179.498 E30.18464
G1 X90 Y179.077 E30.33091
G1 X89.334 Y178.767 E30.47751
G1 X88.628 Y178.578 E30.62336
G1 X87.897 Y178.513 E30.76981
G1 X87.166 Y178.578 E30.91627
G1 X86.46 Y178.767 E31.06212
G1 X85.795 Y179.076 E31.20846
G1 X85.194 Y179.497 E31.35489
G1 X84.675 Y180.017 E31.5015
G1 X84.255 Y180.616 E31.6475
G1 X83.946 Y181.279 E31.79347
G1 X83.756 Y181.988 E31.93995
G1 X83.693 Y182.718 E32.08617
G1 X83.756 Y183.449 E32.23259
G1 X83.947 Y184.157 E32.37893
G1 X84.255 Y184.82 E32.52482
G1 X84.674 Y185.42 E32.67086
G1 X85.194 Y185.941 E32.81776
G1 X85.796 Y186.36 E32.96413
G1 X86.457 Y186.668 E33.10966
G1 X87.167 Y186.861 E33.25649
G1 X87.897 Y186.922 E33.40267
G1 X88.627 Y186.861 E33.54886
G1 X89.337 Y186.668 E33.69569
G1 X89.999 Y186.36 E33.8414
G0 F6000 X89.598 Y185.664
;TYPE:WALL-OUTER
G1 F1200 X90.083 Y185.325 E33.95949
G1 X90.503 Y184.904 E34.07816
G1 X90.843 Y184.419 E34.19636
G1 X91.093 Y183.881 E34.31475
G1 X91.246 Y183.31 E34.43272
G1 X91.299 Y182.718 E34.55133
G1 X91.246 Y182.128 E34.66955
G1 X91.093 Y181.555 E34.7879
G1 X90.843 Y181.017 E34.90629
G1 X90.503 Y180.533 E35.02433
G1 X90.083 Y180.113 E35.14286
G1 X89.598 Y179.772 E35.26118
G1 X89.06 Y179.522 E35.37956
G1 X88.488 Y179.369 E35.49773
G1 X87.897 Y179.316 E35.61614
G1 X87.306 Y179.369 E35.73455
G1 X86.734 Y179.522 E35.85272
G1 X86.196 Y179.772 E35.9711
G1 X85.71 Y180.112 E36.08947
G1 X85.29 Y180.533 E36.20814
G1 X84.951 Y181.017 E36.32607
G1 X84.701 Y181.554 E36.44427
G1 X84.547 Y182.127 E36.56268
G1 X84.496 Y182.718 E36.68106
G1 X84.547 Y183.31 E36.79964
G1 X84.701 Y183.882 E36.91785
G1 X84.951 Y184.419 E37.03606
G1 X85.29 Y184.904 E37.15415
G1 X85.71 Y185.325 E37.27282
G1 X86.197 Y185.664 E37.39123
G1 X86.733 Y185.914 E37.50926
G1 X87.306 Y186.07 E37.62777
G1 X87.897 Y186.119 E37.74612
G1 X88.488 Y186.07 E37.86446
G1 X89.061 Y185.914 E37.98297
G1 X89.598 Y185.664 E38.10118
G0 F6000 X90.037 Y186.426
G1 F2700 E33.10118
G0 F6000 X91.319 Y183.963
G0 X91.483 Y183.351
G0 X91.54 Y182.718
G0 X91.509 Y182.361
G0 X90.853 Y179.198
G0 X92.487 Y177.181
G0 X89.854 Y174.909
G0 X87.637 Y172.765
G0 X86.066 Y171.093
G0 X83.42 Y167.987
G0 X81.442 Y165.34
G0 X79.614 Y162.582
G0 X78.356 Y160.447
G0 X76.433 Y156.762
G0 X75.076 Y153.71
G0 X73.862 Y150.541
G0 X72.797 Y147.284
G0 X71.873 Y143.922
G0 X70.739 Y138.688
G0 X69.897 Y133.227
G0 X69.33 Y127.533
G0 X69.199 Y125.572
G0 X68.986 Y119.564
G0 X69.028 Y113.406
G0 X69.2 Y109.42
G0 X69.677 Y103.641
G0 X70.427 Y98.102
G0 X71.462 Y92.796
G0 X72.096 Y90.229
G0 X72.798 Y87.714
G0 X73.862 Y84.457
G0 X75.076 Y81.289
G0 X76.433 Y78.236
G0 X77.174 Y76.735
G0 X78.761 Y73.835
G0 X80.51 Y71.023
G0 X82.916 Y67.666
G0 X84.468 Y65.729
G0 X86.066 Y63.906
G0 X88.733 Y61.147
G0 X90.883 Y59.161
G0 X92.473 Y57.802
G0 X94.655 Y56.067
G0 X97.492 Y54.008
G0 X101.028 Y51.723
G0 X103.461 Y50.309
G0 X105.932 Y48.993
G0 X109.715 Y47.199
G0 X113.554 Y45.631
G0 X115.495 Y44.935
G0 X118.73 Y43.903
G0 X123.282 Y42.75
G0 X125.882 Y42.244
G0 X131.989 Y41.368
G0 X161.339 Y37.927
G0 X161.639 Y37.322
;TYPE:WALL-INNER
G1 F2700 E38.10118
G1 F1200 X161.552 Y36.488 E38.26852
G1 X161.515 Y36.198 E38.32686
G1 X194.154 Y32.809 E44.87534
G1 X194.352 Y32.788 E44.91508
G1 X194.414 Y32.781 E44.92753
G1 X194.436 Y32.781 E44.93192
G1 X194.475 Y32.783 E44.93971
G1 X194.474 Y33.376 E45.02277
G1 X194.416 Y33.396 E45.02922
G1 X194.22 Y33.436 E45.06163
G1 X161.639 Y37.322 E51.60961
G1 F2700 E46.60961
G0 F6000 X161.153 Y37.619
G0 X123.077 Y42.223
G1 F2700 E51.60961
G1 F1200 X120.545 Y42.826 E52.12902
G1 X118.571 Y43.366 E52.53743
G1 X117.947 Y43.564 E52.66808
G1 X115.314 Y44.403 E53.21955
G1 X113.356 Y45.106 E53.63471
G1 X111.417 Y45.869 E54.05054
G1 X109.49 Y46.685 E54.46815
G1 X108.204 Y47.267 E54.74985
G1 X105.678 Y48.493 E55.31017
G1 X103.19 Y49.818 E55.8727
G1 X101.956 Y50.519 E56.15592
G1 X100.735 Y51.246 E56.4395
G1 X98.352 Y52.752 E57.00206
G1 X97.174 Y53.546 E57.28556
G1 X96.014 Y54.359 E57.56825
G1 X94.313 Y55.623 E57.99116
G1 X92.116 Y57.369 E58.55119
G1 X90.511 Y58.742 E58.97269
G1 X88.345 Y60.741 E59.56089
G1 X87.235 Y61.844 E59.87317
G1 X85.651 Y63.528 E60.33453
G1 X84.038 Y65.368 E60.82284
G1 X82.472 Y67.324 E61.32287
G1 X80.987 Y69.332 E61.82126
G1 X80.043 Y70.714 E62.15526
G1 X79.14 Y72.118 E62.48839
G1 X78.274 Y73.555 E62.82321
G1 X76.676 Y76.476 E63.48765
G1 X75.925 Y77.997 E63.82617
G1 X74.558 Y81.072 E64.49772
G1 X73.927 Y82.661 E64.83891
G1 X73.332 Y84.273 E65.18182
G1 X72.261 Y87.551 E65.87001
G1 X71.553 Y90.087 E66.39545
G1 X70.916 Y92.67 E66.92635
G1 X70.362 Y95.316 E67.46584
G1 X69.874 Y98.009 E68.01201
G1 X69.591 Y99.848 E68.38332
G1 X69.12 Y103.577 E69.1334
G1 X68.93 Y105.497 E69.51843
G1 X68.64 Y109.387 E70.29687
G1 X68.467 Y113.39 E71.09646
G1 X68.41 Y117.495 E71.91574
G1 X68.425 Y119.577 E72.33123
G1 X68.639 Y125.601 E73.53415
G1 X68.77 Y127.577 E73.92934
G1 X69.119 Y131.41 E74.69742
G1 X69.34 Y133.298 E75.07677
G1 X69.592 Y135.16 E75.45174
G1 X70.188 Y138.787 E76.18525
G1 X70.537 Y140.579 E76.54958
G1 X71.329 Y144.059 E77.26181
G1 X72.261 Y147.445 E77.96266
G1 X73.332 Y150.725 E78.65123
G1 X73.927 Y152.339 E78.99451
G1 X74.559 Y153.928 E79.33577
G1 X75.926 Y157.001 E80.00696
G1 X76.675 Y158.519 E80.34476
G1 X77.867 Y160.724 E80.84497
G1 X79.137 Y162.877 E81.34381
G1 X80.043 Y164.285 E81.67793
G1 X80.984 Y165.663 E82.01093
G1 X81.963 Y167.012 E82.34356
G1 X82.981 Y168.336 E82.67685
G1 X84.042 Y169.636 E83.01172
G1 X85.651 Y171.471 E83.49875
G1 X87.235 Y173.156 E83.96026
G1 X88.341 Y174.254 E84.27127
G1 X89.474 Y175.321 E84.58185
G1 X90.516 Y176.263 E84.86217
G1 X92.117 Y177.629 E85.28216
G1 X94.316 Y179.38 E85.84312
G1 X96.595 Y181.048 E86.40672
G1 X98.944 Y182.629 E86.97177
G1 X101.948 Y184.475 E87.6754
G1 X103.185 Y185.178 E87.95933
G1 X104.431 Y185.858 E88.24261
G1 X106.935 Y187.13 E88.80308
G1 X108.209 Y187.736 E89.08462
G1 X109.491 Y188.315 E89.36534
G1 X112.056 Y189.391 E89.92043
G1 X113.362 Y189.896 E90.19986
G1 X115.955 Y190.817 E90.74899
G1 X117.268 Y191.241 E91.02434
G1 X118.009 Y191.464 E91.17877
G1 X118.58 Y191.636 E91.29777
G1 X120.545 Y192.173 E91.70429
G1 X123.256 Y192.813 E92.26017
G1 X120.509 Y192.528 E92.38194
G1 X118.509 Y192.319 E92.64656
G1 X117.916 Y192.258 E92.75715
G1 X109.642 Y191.396 E94.41725
G1 X102.943 Y190.633 E95.76276
G1 X98.337 Y190.028 E96.68983
G1 X94.904 Y189.519 E97.38241
G1 X91.859 Y189.004 E97.9987
G1 X88.865 Y188.429 E98.60711
G1 X85.822 Y187.756 E99.22904
G1 X84.332 Y187.391 E99.53518
G1 X81.375 Y186.575 E100.14734
G1 X78.514 Y185.668 E100.74629
G1 X77.089 Y185.163 E101.04799
G1 X75.669 Y184.62 E101.35138
G1 X74.242 Y184.032 E101.65938
G1 X71.589 Y182.811 E102.24219
G1 X69.452 Y181.687 E102.72405
G1 X68.351 Y181.057 E102.97719
G1 X66.271 Y179.747 E103.46774
G1 X64.313 Y178.377 E103.94463
G1 X63.386 Y177.673 E104.17692
G1 X61.474 Y176.089 E104.67241
G1 X59.709 Y174.461 E105.15159
G1 X58.367 Y173.095 E105.53374
G1 X57.139 Y171.754 E105.8966
G1 X55.448 Y169.716 E106.42508
G1 X54.581 Y168.58 E106.71026
G1 X53.742 Y167.409 E106.99773
G1 X52.186 Y165.049 E107.56185
G1 X51.436 Y163.81 E107.85088
G1 X50.716 Y162.547 E108.141
G1 X49.992 Y161.2 E108.44618
G1 X49.341 Y159.92 E108.73276
G1 X48.064 Y157.171 E109.33765
G1 X47.448 Y155.719 E109.65241
G1 X46.302 Y152.741 E110.28919
G1 X45.784 Y151.251 E110.60399
G1 X45.293 Y149.744 E110.92029
G1 X44.73 Y147.882 E111.30848
G1 X44.227 Y146.061 E111.68549
G1 X43.331 Y142.366 E112.44424
G1 X42.563 Y138.507 E113.22945
