;FLAVOR:Marlin
;TIME:1155
;Filament used: 4.28076m
;Layer height: 0.6
;MINX:38.01
;MINY:31.712
;MINZ:0.6
;MAXX:196.99
;MAXY:203.287
;MAXZ:9.6
;Generated with Cura_SteamEngine 4.5.0
M140 S50
M105
M190 S50
M104 S210
M105
M109 S210
M82 ;absolute extrusion mode
; Ender 3 Custom Start G-code
G92 E0 ; Reset Extruder
G28 ; Home all axes
G1 Z2.0 F3000 ; Move Z Axis up little to prevent scratching of Heat Bed
G1 X0.1 Y20 Z0.3 F5000.0 ; Move to start position
G1 X0.1 Y200.0 Z0.3 F1500.0 E15 ; Draw the first line
G1 X0.4 Y200.0 Z0.3 F5000.0 ; Move to side a little
G1 X0.4 Y20 Z0.3 F1500.0 E30 ; Draw the second line
G92 E0 ; Reset Extruder
G1 Z2.0 F3000 ; Move Z Axis up little to prevent scratching of Heat Bed
G1 X5 Y20 Z0.3 F5000.0 ; Move over to prevent blob squish
G92 E0
G92 E0
G1 F2700 E-5
;LAYER_COUNT:16
;LAYER:0
M107
M204 S500
M205 X8 Y8
;MESH:MeshBodyv3.stl
G0 F6000 X62.514 Y111.946 Z0.6
;TYPE:WALL-INNER
G1 F2700 E0
G1 F1200 X63.094 Y111.596 E0.13519
G1 X63.686 Y111.21 E0.27622
G1 X64.177 Y110.746 E0.41104
G1 X64.666 Y110.235 E0.55218
G1 X65.046 Y109.674 E0.6874
G1 X65.399 Y109.076 E0.82598
G1 X65.477 Y108.891 E0.86604
G1 X65.741 Y108.222 E1.00957
G1 X65.855 Y107.822 E1.09257
G1 X65.954 Y107.334 E1.19194
G1 X67.562 Y96.866 E3.30545
G1 X67.632 Y96.63 E3.35457
G1 X67.731 Y96.261 E3.43081
G1 X67.761 Y95.918 E3.49952
G1 X70.406 Y87.55 E5.25088
G1 X70.953 Y85.864 E5.60461
G1 X72.048 Y82.598 E6.29203
G1 X72.972 Y79.988 E6.84456
G1 X73.644 Y78.212 E7.2235
G1 X74.239 Y76.755 E7.53757
G1 X74.504 Y76.145 E7.6703
G1 X74.781 Y75.53 E7.8049
G1 X75.073 Y74.913 E7.94112
G1 X75.427 Y74.2 E8.09998
G1 X75.526 Y74.012 E8.14238
G1 X76.265 Y72.679 E8.44654
G1 X76.648 Y72.051 E8.59334
G1 X77.011 Y71.483 E8.72786
G1 X77.383 Y70.925 E8.86169
G1 X78.125 Y69.874 E9.11843
G1 X79.088 Y68.605 E9.43634
G1 X79.498 Y68.083 E9.5688
G1 X80.056 Y67.391 E9.7462
G1 X81.216 Y65.999 E10.1078
G1 X81.967 Y65.121 E10.33836
G1 X84.246 Y62.521 E11.02833
G1 X90.774 Y55.328 E12.96679
G1 X91.119 Y54.981 E13.06443
G1 X91.539 Y54.384 E13.2101
G1 X91.848 Y53.718 E13.35662
G1 X92.037 Y53.011 E13.50266
G1 X92.102 Y52.281 E13.64892
G1 X92.037 Y51.55 E13.79537
G1 X91.848 Y50.843 E13.94142
G1 X91.539 Y50.179 E14.08757
G1 X91.118 Y49.578 E14.234
G1 X90.599 Y49.059 E14.38048
G1 X89.999 Y48.638 E14.52675
G1 X89.334 Y48.329 E14.67308
G1 X88.626 Y48.14 E14.81932
G1 X87.897 Y48.077 E14.96534
G1 X87.168 Y48.14 E15.11136
G1 X86.46 Y48.329 E15.2576
G1 X85.795 Y48.638 E15.40394
G1 X85.193 Y49.059 E15.55053
G1 X84.893 Y49.361 E15.63548
G1 X79.263 Y52.078 E16.883
G1 X75.746 Y53.839 E17.66792
G1 X73.258 Y55.13 E18.22729
G1 X71.03 Y56.332 E18.73249
G1 X70.418 Y56.671 E18.87211
G1 X68.943 Y57.51 E19.21075
G1 X67.721 Y58.234 E19.4942
G1 X66.763 Y58.819 E19.7182
G1 X66.104 Y59.236 E19.87383
G1 X64.992 Y59.962 E20.13885
G1 X64.034 Y60.62 E20.37078
G1 X62.974 Y61.388 E20.632
G1 X62.323 Y61.896 E20.79679
G1 X61.168 Y62.826 E21.09272
G1 X60.526 Y63.387 E21.26286
G1 X59.539 Y64.32 E21.5339
G1 X58.861 Y64.982 E21.723
G1 X58.624 Y65.234 E21.79203
G1 X57.993 Y65.936 E21.9804
G1 X57.275 Y66.768 E22.19971
G1 X56.712 Y67.503 E22.38448
G1 X55.926 Y68.552 E22.64606
G1 X55.739 Y68.818 E22.71095
G1 X54.968 Y69.986 E22.99024
G1 X54.057 Y71.501 E23.34302
G1 X53.704 Y72.127 E23.48644
G1 X52.955 Y73.535 E23.80471
G1 X52.309 Y74.833 E24.09404
G1 X51.436 Y76.703 E24.50589
G1 X51.045 Y77.587 E24.69878
G1 X50.51 Y78.823 E24.96756
G1 X50.189 Y79.587 E25.13293
G1 X49.554 Y81.146 E25.46886
G1 X49.195 Y82.049 E25.66279
G1 X48.389 Y84.129 E26.10795
G1 X47.704 Y85.952 E26.49658
G1 X46.988 Y87.902 E26.91113
G1 X45.828 Y91.147 E27.59883
G1 X45.203 Y92.931 E27.97607
G1 X43.572 Y105.619 E30.52893
G1 X43.541 Y106.797 E30.76409
G1 X43.633 Y107.375 E30.88089
G1 X43.749 Y107.996 E31.00696
G1 X43.945 Y108.543 E31.12292
G1 X44.174 Y109.098 E31.24273
G1 X44.315 Y109.369 E31.30369
G1 X44.419 Y109.55 E31.34535
G1 X44.669 Y109.933 E31.43663
G1 X44.973 Y110.328 E31.5361
G1 X45.439 Y110.794 E31.66761
G1 X45.927 Y111.253 E31.80131
G1 X46.513 Y111.622 E31.9395
G1 X47.09 Y111.964 E32.07335
G1 X47.74 Y112.194 E32.21095
G1 X48.38 Y112.407 E32.34556
G1 X49.663 Y112.549 E32.60316
G1 X59.899 Y112.549 E34.64586
G1 X61.202 Y112.403 E34.90752
G1 X61.846 Y112.187 E35.04307
G1 X62.514 Y111.946 E35.18479
G0 F6000 X62.168 Y111.22
;TYPE:WALL-OUTER
G1 F1200 X62.669 Y110.918 E35.30153
G1 X63.189 Y110.579 E35.4254
G1 X63.613 Y110.178 E35.54186
G1 X64.042 Y109.73 E35.66565
G1 X64.37 Y109.246 E35.78232
G1 X64.683 Y108.715 E35.90533
G1 X64.737 Y108.588 E35.93287
G1 X64.982 Y107.965 E36.06647
G1 X65.077 Y107.632 E36.13557
G1 X65.166 Y107.194 E36.22476
G1 X66.779 Y96.696 E38.34434
G1 X66.862 Y96.414 E38.403
G1 X66.94 Y96.122 E38.46332
G1 X66.972 Y95.76 E38.53584
G1 X69.645 Y87.303 E40.30582
G1 X70.192 Y85.617 E40.65954
G1 X71.294 Y82.331 E41.35119
G1 X72.224 Y79.705 E41.90713
G1 X72.903 Y77.91 E42.29012
G1 X73.505 Y76.436 E42.60786
G1 X73.77 Y75.826 E42.74058
G1 X74.058 Y75.188 E42.88027
G1 X74.356 Y74.557 E43.01953
G1 X74.71 Y73.844 E43.17839
G1 X74.826 Y73.624 E43.22802
G1 X75.572 Y72.278 E43.53513
G1 X75.974 Y71.62 E43.689
G1 X76.345 Y71.039 E43.82657
G1 X76.717 Y70.481 E43.9604
G1 X77.488 Y69.39 E44.227
G1 X78.459 Y68.111 E44.54746
G1 X78.875 Y67.581 E44.68192
G1 X79.441 Y66.879 E44.86187
G1 X80.608 Y65.479 E45.2256
G1 X81.365 Y64.594 E45.458
G1 X83.654 Y61.983 E46.15094
G1 X90.191 Y54.781 E48.09193
G1 X90.503 Y54.466 E48.1804
G1 X90.843 Y53.982 E48.29844
G1 X91.093 Y53.444 E48.41683
G1 X91.246 Y52.871 E48.53519
G1 X91.299 Y52.281 E48.6534
G1 X91.246 Y51.69 E48.77181
G1 X91.093 Y51.117 E48.89017
G1 X90.843 Y50.58 E49.00838
G1 X90.503 Y50.094 E49.12674
G1 X90.083 Y49.674 E49.24527
G1 X89.598 Y49.334 E49.36348
G1 X89.06 Y49.084 E49.48186
G1 X88.487 Y48.931 E49.60022
G1 X87.897 Y48.88 E49.7184
G1 X87.307 Y48.931 E49.83658
G1 X86.734 Y49.084 E49.95493
G1 X86.196 Y49.334 E50.07332
G1 X85.71 Y49.674 E50.19169
G1 X85.362 Y50.024 E50.29018
G1 X79.616 Y52.796 E51.56332
G1 X76.109 Y54.552 E52.34601
G1 X73.632 Y55.837 E52.90288
G1 X71.414 Y57.034 E53.40585
G1 X70.81 Y57.369 E53.54368
G1 X69.345 Y58.202 E53.88
G1 X68.133 Y58.92 E54.16112
G1 X67.185 Y59.499 E54.3828
G1 X66.536 Y59.909 E54.53599
G1 X65.437 Y60.627 E54.79797
G1 X64.495 Y61.274 E55.02602
G1 X63.455 Y62.028 E55.28237
G1 X62.82 Y62.523 E55.44305
G1 X61.682 Y63.439 E55.73458
G1 X61.064 Y63.979 E55.89835
G1 X60.093 Y64.897 E56.16502
G1 X59.432 Y65.543 E56.34946
G1 X59.212 Y65.776 E56.41341
G1 X58.593 Y66.465 E56.59825
G1 X57.896 Y67.273 E56.81119
G1 X57.35 Y67.986 E56.99041
G1 X56.573 Y69.022 E57.24884
G1 X56.4 Y69.268 E57.30886
G1 X55.645 Y70.413 E57.58256
G1 X54.748 Y71.903 E57.92963
G1 X54.406 Y72.511 E58.06884
G1 X53.666 Y73.901 E58.38309
G1 X53.03 Y75.18 E58.66814
G1 X52.164 Y77.034 E59.0765
G1 X51.778 Y77.908 E59.26717
G1 X51.246 Y79.137 E59.53442
G1 X50.928 Y79.893 E59.69809
G1 X50.296 Y81.445 E60.03251
G1 X49.94 Y82.341 E60.22491
G1 X49.136 Y84.414 E60.66862
G1 X48.454 Y86.23 E61.05574
G1 X47.74 Y88.175 E61.46921
G1 X46.582 Y91.414 E62.15566
G1 X45.986 Y93.116 E62.51553
G1 X44.371 Y105.681 E65.04364
G1 X44.343 Y106.745 E65.25605
G1 X44.421 Y107.239 E65.35585
G1 X44.524 Y107.786 E65.46693
G1 X44.692 Y108.256 E65.56654
G1 X44.9 Y108.76 E65.67534
G1 X45.017 Y108.985 E65.72595
G1 X45.101 Y109.131 E65.75957
G1 X45.322 Y109.469 E65.84016
G1 X45.576 Y109.799 E65.92326
G1 X45.996 Y110.22 E66.04193
G1 X46.419 Y110.617 E66.1577
G1 X46.931 Y110.94 E66.27851
G1 X47.43 Y111.236 E66.39429
G1 X48 Y111.437 E66.51491
G1 X48.552 Y111.621 E66.63102
G1 X49.707 Y111.749 E66.86293
G1 X59.854 Y111.749 E68.88787
G1 X61.028 Y111.617 E69.12363
G1 X61.583 Y111.431 E69.24044
G1 X62.168 Y111.22 E69.36455
G0 F6000 X62.546 Y112.014
G1 F2700 E64.36455
G0 F6000 X62.683 Y112.3
G0 X61.707 Y110.254
G0 X79.828 Y170.793
G0 X81.555 Y169.342
G0 X90.687 Y180.378
G0 X91.051 Y180.898
G0 X91.319 Y181.474
G0 X91.483 Y182.086
G0 X91.54 Y182.718
G0 X91.483 Y183.35
G0 X91.319 Y183.962
G0 X91.244 Y184.125
G0 X90 Y186.36
;TYPE:WALL-INNER
G1 F2700 E69.36455
G1 F1200 X90.599 Y185.939 E69.51066
G1 X91.118 Y185.42 E69.65713
G1 X91.539 Y184.82 E69.8034
G1 X91.848 Y184.155 E69.94974
G1 X92.037 Y183.449 E70.09559
G1 X92.102 Y182.718 E70.24204
G1 X92.037 Y181.987 E70.3885
G1 X91.848 Y181.281 E70.53435
G1 X91.539 Y180.616 E70.68068
G1 X91.118 Y180.016 E70.82695
G1 X90.599 Y179.497 E70.97343
G1 X90 Y179.076 E71.11953
G1 X89.521 Y178.854 E71.22489
G1 X86.752 Y175.816 E72.0452
G1 X82.982 Y171.595 E73.17461
G1 X81.256 Y169.594 E73.70196
G1 X80.522 Y168.72 E73.92973
G1 X79.437 Y167.386 E74.27288
G1 X79.073 Y166.925 E74.39009
G1 X78.548 Y166.241 E74.56217
G1 X77.843 Y165.284 E74.79937
G1 X77.085 Y164.18 E75.06662
G1 X75.86 Y162.162 E75.53772
G1 X75.374 Y161.244 E75.74501
G1 X75.084 Y160.659 E75.87531
G1 X74.791 Y160.04 E76.01198
G1 X74.261 Y158.843 E76.27322
G1 X73.701 Y157.478 E76.56765
G1 X73.066 Y155.815 E76.92289
G1 X72.664 Y154.708 E77.15792
G1 X71.848 Y152.361 E77.65379
G1 X70.678 Y148.838 E78.3946
G1 X68.084 Y140.67 E80.10484
G1 X67.777 Y139.68 E80.31169
G1 X67.796 Y139.468 E80.35416
G1 X67.731 Y138.737 E80.50062
G1 X67.542 Y138.031 E80.64647
G1 X67.424 Y137.776 E80.70254
G1 X65.951 Y128.2 E82.63601
G1 X65.814 Y127.66 E82.74719
G1 X65.625 Y126.98 E82.88803
G1 X65.356 Y126.413 E83.01327
G1 X65.013 Y125.795 E83.15432
G1 X64.638 Y125.291 E83.27969
G1 X64.158 Y124.769 E83.42121
G1 X63.663 Y124.325 E83.55391
G1 X63.07 Y123.928 E83.69632
G1 X62.495 Y123.596 E83.82882
G1 X61.825 Y123.35 E83.97125
G1 X61.193 Y123.144 E84.1039
G1 X60.483 Y123.061 E84.24656
G1 X59.895 Y122.999 E84.36455
G1 X49.526 Y123.002 E86.4338
G1 X49.125 Y123.027 E86.51397
G1 X48.963 Y123.047 E86.54655
G1 X48.674 Y123.092 E86.60492
G1 X48.136 Y123.217 E86.71514
G1 X47.749 Y123.32 E86.79506
G1 X47.238 Y123.543 E86.90632
G1 X46.691 Y123.79 E87.0261
G1 X46.236 Y124.096 E87.13552
G1 X45.771 Y124.426 E87.24931
G1 X45.654 Y124.53 E87.28055
G1 X45.259 Y124.908 E87.38965
G1 X44.834 Y125.397 E87.51894
G1 X44.567 Y125.768 E87.61016
G1 X44.286 Y126.251 E87.72167
G1 X44.071 Y126.657 E87.81336
G1 X43.729 Y127.634 E88.01993
G1 X43.696 Y127.772 E88.04824
G1 X43.622 Y128.156 E88.12628
G1 X43.567 Y128.51 E88.19778
G1 X43.542 Y128.897 E88.27517
G1 X43.528 Y129.256 E88.34686
G1 X43.575 Y129.953 E88.48627
G1 X45.203 Y142.619 E91.0347
G1 X46.701 Y146.85 E91.9304
G1 X47.685 Y149.543 E92.50257
G1 X48.268 Y151.1 E92.83436
G1 X49.056 Y153.146 E93.27189
G1 X49.732 Y154.845 E93.6368
G1 X50.551 Y156.822 E94.06385
G1 X51.333 Y158.617 E94.45458
G1 X52.087 Y160.254 E94.81424
G1 X52.441 Y160.984 E94.97615
G1 X52.771 Y161.652 E95.12483
G1 X53.103 Y162.287 E95.26783
G1 X53.697 Y163.406 E95.52065
G1 X54.057 Y164.048 E95.66754
G1 X54.94 Y165.52 E96.01009
G1 X55.318 Y166.095 E96.14741
G1 X55.845 Y166.883 E96.33659
G1 X56.312 Y167.532 E96.49615
G1 X57.184 Y168.668 E96.78194
G1 X57.497 Y169.044 E96.87957
G1 X58.117 Y169.764 E97.06919
G1 X58.714 Y170.394 E97.24239
G1 X59.485 Y171.192 E97.46383
G1 X60.326 Y171.984 E97.69436
G1 X60.518 Y172.154 E97.74554
G1 X61.33 Y172.855 E97.95962
G1 X61.772 Y173.224 E98.07452
G1 X63.054 Y174.221 E98.39862
G1 X63.47 Y174.525 E98.50144
G1 X64.137 Y174.995 E98.66427
G1 X64.991 Y175.583 E98.87119
G1 X65.884 Y176.168 E99.08423
G1 X66.953 Y176.846 E99.33685
G1 X67.283 Y177.047 E99.41396
G1 X68.171 Y177.582 E99.62084
G1 X69.139 Y178.15 E99.84482
G1 X71.062 Y179.233 E100.28525
G1 X73.159 Y180.365 E100.76081
G1 X75.104 Y181.381 E101.19872
G1 X77.813 Y182.751 E101.80453
G1 X79.733 Y183.7 E102.23193
G1 X85.465 Y186.459 E103.50143
G1 X87.187 Y186.865 E103.85449
G1 X87.901 Y186.922 E103.99743
G1 X88.627 Y186.859 E104.14286
G1 X89.336 Y186.669 E104.28934
G1 X90 Y186.36 E104.43549
G0 F6000 X89.598 Y185.664
;TYPE:WALL-OUTER
G1 F1200 X90.083 Y185.324 E104.55369
G1 X90.503 Y184.904 E104.67223
G1 X90.843 Y184.419 E104.79043
G1 X91.093 Y183.881 E104.90882
G1 X91.246 Y183.309 E105.02698
G1 X91.299 Y182.718 E105.14539
G1 X91.246 Y182.127 E105.26381
G1 X91.093 Y181.555 E105.38197
G1 X90.843 Y181.017 E105.50036
G1 X90.503 Y180.532 E105.61856
G1 X90.083 Y180.112 E105.73709
G1 X89.598 Y179.772 E105.85529
G1 X89.061 Y179.522 E105.9735
G1 X88.987 Y179.455 E105.99342
G1 X86.155 Y176.349 E106.83223
G1 X82.385 Y172.128 E107.96164
G1 X80.65 Y170.117 E108.49167
G1 X79.909 Y169.235 E108.72156
G1 X78.816 Y167.891 E109.06727
G1 X78.445 Y167.421 E109.18676
G1 X77.913 Y166.728 E109.36111
G1 X77.183 Y165.737 E109.60674
G1 X76.417 Y164.621 E109.87686
G1 X75.166 Y162.56 E110.35799
G1 X74.658 Y161.601 E110.57456
G1 X74.367 Y161.014 E110.70531
G1 X74.059 Y160.364 E110.84885
G1 X73.529 Y159.167 E111.11009
G1 X72.961 Y157.782 E111.40882
G1 X72.519 Y156.634 E111.65431
G1 X72.315 Y156.089 E111.77044
G1 X71.912 Y154.982 E112.00554
G1 X71.092 Y152.624 E112.50375
G1 X69.919 Y149.09 E113.24683
G1 X67.321 Y140.908 E114.95997
G1 X66.966 Y139.767 E115.19844
G1 X66.993 Y139.468 E115.25835
G1 X66.94 Y138.877 E115.37676
G1 X66.787 Y138.305 E115.49492
G1 X66.65 Y138.01 E115.55983
G1 X65.166 Y128.359 E117.50843
G1 X65.041 Y127.865 E117.61012
G1 X64.873 Y127.261 E117.73523
G1 X64.644 Y126.779 E117.84172
G1 X64.339 Y126.23 E117.96705
G1 X64.021 Y125.802 E118.07346
G1 X63.595 Y125.339 E118.19902
G1 X63.171 Y124.958 E118.31277
G1 X62.647 Y124.608 E118.43852
G1 X62.154 Y124.323 E118.55216
G1 X61.563 Y124.106 E118.6778
G1 X61.021 Y123.929 E118.79159
G1 X60.395 Y123.856 E118.91736
G1 X59.853 Y123.799 E119.02612
G1 X49.551 Y123.802 E121.08199
G1 X49.198 Y123.824 E121.15257
G1 X49.073 Y123.839 E121.1777
G1 X48.827 Y123.878 E121.2274
G1 X48.329 Y123.993 E121.3294
G1 X48.014 Y124.077 E121.39446
G1 X47.563 Y124.274 E121.49267
G1 X47.082 Y124.491 E121.59798
G1 X46.691 Y124.754 E121.69201
G1 X46.27 Y125.053 E121.79506
G1 X46.197 Y125.118 E121.81457
G1 X45.839 Y125.461 E121.91351
G1 X45.462 Y125.894 E122.02808
G1 X45.239 Y126.204 E122.10429
G1 X44.985 Y126.64 E122.20499
G1 X44.806 Y126.978 E122.28131
G1 X44.498 Y127.857 E122.46718
G1 X44.479 Y127.939 E122.48398
G1 X44.41 Y128.294 E122.55615
G1 X44.363 Y128.597 E122.61734
G1 X44.341 Y128.938 E122.68553
G1 X44.329 Y129.244 E122.74664
G1 X44.372 Y129.875 E122.87286
G1 X45.986 Y142.432 E125.39936
G1 X47.454 Y146.579 E126.27726
G1 X48.435 Y149.265 E126.84791
G1 X49.016 Y150.816 E127.17843
G1 X49.801 Y152.854 E127.61427
G1 X50.473 Y154.544 E127.97721
G1 X51.287 Y156.509 E128.40166
G1 X52.063 Y158.29 E128.78935
G1 X52.81 Y159.912 E129.14571
G1 X53.159 Y160.632 E129.30539
G1 X53.484 Y161.289 E129.45166
G1 X53.811 Y161.914 E129.59243
G1 X54.399 Y163.023 E129.84293
G1 X54.749 Y163.646 E129.98553
G1 X55.618 Y165.094 E130.32254
G1 X55.985 Y165.653 E130.45598
G1 X56.503 Y166.427 E130.64184
G1 X56.954 Y167.055 E130.79614
G1 X57.809 Y168.168 E131.07622
G1 X58.108 Y168.527 E131.16946
G1 X58.711 Y169.228 E131.35398
G1 X59.292 Y169.841 E131.52253
G1 X60.047 Y170.623 E131.73945
G1 X60.865 Y171.393 E131.96364
G1 X61.044 Y171.551 E132.01128
G1 X61.848 Y172.245 E132.22324
G1 X62.274 Y172.601 E132.33403
G1 X63.536 Y173.582 E132.65301
G1 X63.937 Y173.875 E132.75212
G1 X64.594 Y174.339 E132.91263
G1 X65.437 Y174.919 E133.11684
G1 X66.318 Y175.496 E133.327
G1 X67.375 Y176.167 E133.57685
G1 X67.697 Y176.363 E133.65208
G1 X68.58 Y176.894 E133.8577
G1 X69.538 Y177.457 E134.07945
G1 X71.448 Y178.532 E134.51683
G1 X73.534 Y179.658 E134.98989
G1 X75.47 Y180.669 E135.42575
G1 X78.171 Y182.035 E136.02977
G1 X80.084 Y182.981 E136.45566
G1 X85.733 Y185.7 E137.70677
G1 X87.311 Y186.072 E138.03031
G1 X87.898 Y186.119 E138.14782
G1 X88.488 Y186.068 E138.266
G1 X89.061 Y185.914 E138.38441
G1 X89.598 Y185.664 E138.50262
G0 F6000 X90.037 Y186.426
G1 F2700 E133.50262
G0 F6000 X91.319 Y183.962
G0 X91.483 Y183.35
G0 X91.54 Y182.718
G0 X91.509 Y182.361
G0 X90.852 Y179.197
G0 X92.487 Y177.181
G0 X89.854 Y174.909
G0 X87.637 Y172.763
G0 X86.066 Y171.093
G0 X83.42 Y167.987
G0 X81.442 Y165.339
G0 X79.614 Y162.582
G0 X78.356 Y160.447
G0 X76.433 Y156.762
G0 X75.076 Y153.71
G0 X73.862 Y150.541
G0 X72.797 Y147.284
G0 X71.873 Y143.922
G0 X70.739 Y138.688
G0 X69.897 Y133.227
G0 X69.33 Y127.533
G0 X69.199 Y125.572
G0 X68.986 Y119.564
G0 X69.028 Y113.406
